icons/_assets/attachment.svg

<svg width="100" height="100" xmlns="http://www.w3.org/2000/svg"><path d="M88.9212,49.8044725 L85.1322,53.8732637 L69.9792,70.1484286 C64.9012,75.5701868 59.9362,81.0048022 54.7662,86.4156813 C49.3192,91.6673297 41.8312,94.8786484 34.2052,94.8258977 C30.4102,94.849967 26.5732,94.0864505 23.1302,92.419967 C19.6822,90.7772198 16.6502,88.2621648 14.4152,85.1635934 C12.1792,82.067989 10.7492,78.4096374 10.2392,74.6395275 C9.7132,70.8674396 10.0682,66.9934835 11.1702,63.3549121 C12.2692,59.7113956 14.1042,56.2943626 16.5022,53.3223846 C17.7302,51.824033 18.9872,50.5155714 20.2272,49.126011 L23.9602,45.0067802 L38.8972,28.5377692 L53.8752,12.1013956 C55.2242,10.6752418 56.7292,9.39051648 58.3922,8.32436264 C60.0752,7.29183516 61.8812,6.45513187 63.7782,5.86667033 C65.6892,5.32073626 67.6712,5.01908791 69.6712,5.00128571 C71.6722,4.97853846 73.6772,5.32469231 75.5912,5.9359011 C76.5602,6.22469231 77.4682,6.66579121 78.3802,7.09897802 C79.2482,7.61425275 80.1292,8.11271429 80.9052,8.76150549 C82.5242,9.96908791 83.8692,11.5198571 84.9382,13.2229341 C87.0682,16.6577692 87.8772,20.7957912 87.4122,24.7419451 C86.9622,28.698978 85.3122,32.4680989 82.8152,35.5498571 C82.5112,35.9365604 82.1672,36.3133736 81.8532,36.6733736 L80.9172,37.699967 L79.0452,39.7551319 L75.3012,43.8634835 L60.3032,60.2780989 L52.7922,68.475022 L49.0372,72.5734835 L47.1582,74.6227143 C46.4242,75.3753516 45.6502,76.1032637 44.7552,76.6759011 C43.0092,77.8785385 40.9452,78.6113956 38.8162,78.8586484 C36.6852,79.0633736 34.4532,78.7627143 32.4792,77.7934835 C30.4902,76.8677692 28.8182,75.2982088 27.7392,73.3993077 C26.6542,71.4984286 26.1942,69.2959011 26.3372,67.1606264 C26.4752,65.0223846 27.1912,62.9573297 28.3382,61.183044 C28.6202,60.734033 28.9412,60.3127143 29.2732,59.9012857 C29.6312,59.477989 29.9482,59.1367802 30.2552,58.8024945 L32.1332,56.7532637 L39.6432,48.5563407 L54.6642,32.1624945 L58.4202,28.064033 L60.2972,26.0148022 L60.7672,25.5024945 C60.8192,25.4411758 60.9742,25.2819451 61.1212,25.1424945 C61.2742,25.0119451 61.4272,24.8784286 61.5982,24.7716154 C62.2702,24.3186484 63.0752,24.0733736 63.8782,24.0684286 C65.4992,24.0338132 67.0902,25.0356813 67.7202,26.5459011 C68.0442,27.2896374 68.1282,28.1302967 67.9632,28.9244725 C67.8802,29.3200769 67.7432,29.7097473 67.5412,30.0628242 C67.4452,30.2418352 67.3282,30.408978 67.2082,30.5701868 L67.0152,30.8016154 L66.8852,30.946011 L63.1302,35.0434835 L48.1042,51.4323846 L40.5712,59.6095275 L36.8052,63.6980989 L35.8632,64.7207363 C35.5972,65.0085385 35.4012,65.2607363 35.2122,65.5604066 C34.8442,66.1449121 34.6072,66.7956813 34.5252,67.4385385 C34.3542,68.7331538 34.8652,69.9268901 35.8592,70.4906264 C36.8252,71.0988681 38.2972,71.0672198 39.5352,70.4510659 C40.1712,70.1444725 40.7032,69.739967 41.2202,69.1673297 L43.1032,67.123044 L46.8692,63.0344725 L61.9342,46.6801868 L69.4662,38.503044 L73.2322,34.4144725 L75.1152,32.3701868 L76.0562,31.3485385 C76.3332,31.038978 76.6042,30.7244725 76.8572,30.3951319 C78.8852,27.7791978 79.9822,24.4274396 79.6082,21.2319451 C79.2802,18.0384286 77.3522,15.1356813 74.4862,13.7095275 C71.6462,12.2527143 68.0862,12.2507363 64.9902,13.4424945 C63.4362,14.0329341 61.9852,14.9082088 60.7242,16.0010659 C59.5272,17.0494176 58.2622,18.5457912 57.0062,19.878978 L41.9412,36.2332637 L26.8462,52.5598571 L23.0692,56.6395275 C21.8752,57.9242527 20.8382,59.3266703 19.9592,60.827989 C18.1992,63.8207363 17.1502,67.2278791 17.0152,70.6607363 C16.8662,74.0916154 17.6852,77.5511758 19.4722,80.4588681 C21.2322,83.3883187 24.0092,85.6402967 27.1702,86.9922747 C33.5942,89.6388681 41.4112,88.2987582 47.1132,84.1963407 C47.8632,83.7275495 48.5082,83.1212857 49.1982,82.5723846 C49.8642,81.9918352 50.4622,81.3529341 51.1002,80.7268901 L54.8772,76.6482088 L62.4302,68.4888681 L77.5552,52.187989 L81.3432,48.1201868 L83.2372,46.0857912 L83.7112,45.5774396 L83.9702,45.3044725 C84.0862,45.1848022 84.2102,45.075022 84.3442,44.9751319 C84.8742,44.5716154 85.5252,44.3342527 86.1862,44.2917253 C87.5152,44.1839231 88.8642,44.9385385 89.4462,46.1332637 C90.0612,47.3131538 89.8362,48.8490879 88.9212,49.8044725"/></svg>

<svg width="100" height="100" xmlns="http://www.w3.org/2000/svg"><path d="M88.921 49.804l-3.789 4.07L69.98 70.147c-5.078 5.422-10.043 10.857-15.213 16.268-5.447 5.251-12.935 8.463-20.56 8.41-3.796.024-7.633-.74-11.076-2.406a22.978 22.978 0 01-8.715-7.256C12.18 82.068 10.75 78.41 10.24 74.64c-.526-3.773-.17-7.647.931-11.285 1.1-3.644 2.934-7.06 5.332-10.033 1.228-1.498 2.485-2.806 3.725-4.196l3.733-4.12 14.937-16.468L53.875 12.1c1.35-1.426 2.854-2.71 4.517-3.777a23.798 23.798 0 015.386-2.457A22.185 22.185 0 0169.671 5c2.001-.022 4.006.324 5.92.935.97.289 1.877.73 2.79 1.163.867.515 1.748 1.014 2.524 1.663 1.62 1.207 2.964 2.758 4.033 4.46 2.13 3.436 2.94 7.574 2.474 11.52-.45 3.957-2.1 7.726-4.597 10.808-.304.387-.648.763-.962 1.123l-.936 1.027-1.872 2.055-3.744 4.108-14.998 16.415-7.51 8.197-3.756 4.098-1.879 2.05c-.734.752-1.508 1.48-2.403 2.053-1.746 1.203-3.81 1.935-5.939 2.183-2.13.204-4.363-.096-6.337-1.066-1.989-.925-3.66-2.495-4.74-4.394-1.085-1.9-1.545-4.103-1.402-6.238.138-2.139.854-4.204 2.001-5.978.282-.449.603-.87.935-1.282.358-.423.675-.764.982-1.099l1.878-2.049 7.51-8.197 15.021-16.394 3.756-4.098 1.877-2.05.47-.512c.052-.06.207-.22.354-.36.153-.13.306-.264.477-.37a4.153 4.153 0 012.28-.704c1.621-.034 3.212.968 3.842 2.478.324.744.408 1.584.243 2.378-.083.396-.22.786-.422 1.139a4.12 4.12 0 01-.333.507l-.193.232-.13.144-3.755 4.097-15.026 16.39-7.533 8.177-3.766 4.088-.942 1.023c-.266.288-.462.54-.65.84a4.672 4.672 0 00-.688 1.878c-.17 1.294.34 2.488 1.334 3.052.966.608 2.438.576 3.676-.04a5.322 5.322 0 001.685-1.284l1.883-2.044 3.766-4.089L61.934 46.68l7.532-8.177 3.766-4.089 1.883-2.044.941-1.021c.277-.31.548-.625.801-.954 2.028-2.616 3.125-5.968 2.751-9.163-.328-3.194-2.256-6.096-5.122-7.522-2.84-1.457-6.4-1.46-9.496-.268a14.292 14.292 0 00-4.266 2.56c-1.197 1.047-2.462 2.544-3.718 3.877L41.941 36.233 26.846 52.56l-3.777 4.08a23.818 23.818 0 00-3.11 4.188c-1.76 2.993-2.809 6.4-2.944 9.833-.149 3.43.67 6.89 2.457 9.798 1.76 2.93 4.537 5.181 7.698 6.533 6.424 2.647 14.241 1.307 19.943-2.796.75-.468 1.395-1.075 2.085-1.624.666-.58 1.264-1.22 1.902-1.845l3.777-4.079 7.553-8.16 15.125-16.3 3.788-4.068 1.894-2.034.474-.509.26-.273a3.423 3.423 0 012.216-1.013c1.328-.107 2.677.648 3.26 1.842.614 1.18.39 2.716-.526 3.671" fill="#134B45" fill-rule="evenodd" /></svg>;
